assets/img/icons/yaml.svg

<svg version="1.1" viewBox="0 0 24 24" xmlns="http://www.w3.org/2000/svg"><path d="m5 3h2v2h-2v5a2 2 0 0 1 -2 2 2 2 0 0 1 2 2v5h2v2h-2c-1.07-.27-2-.9-2-2v-4a2 2 0 0 0 -2 -2h-1v-2h1a2 2 0 0 0 2 -2v-4a2 2 0 0 1 2 -2m14 0a2 2 0 0 1 2 2v4a2 2 0 0 0 2 2h1v2h-1a2 2 0 0 0 -2 2v4a2 2 0 0 1 -2 2h-2v-2h2v-5a2 2 0 0 1 2 -2 2 2 0 0 1 -2 -2v-5h-2v-2h2m-7 12a1 1 0 0 1 1 1 1 1 0 0 1 -1 1 1 1 0 0 1 -1 -1 1 1 0 0 1 1 -1m-4 0a1 1 0 0 1 1 1 1 1 0 0 1 -1 1 1 1 0 0 1 -1 -1 1 1 0 0 1 1 -1m8 0a1 1 0 0 1 1 1 1 1 0 0 1 -1 1 1 1 0 0 1 -1 -1 1 1 0 0 1 1 -1z" style="fill:#f44336"/></svg>

<svg id="Layer_1" data-name="Layer 1" xmlns="http://www.w3.org/2000/svg" viewBox="0 0 24 18"><defs><style>.cls-1{fill:#f44336;}</style></defs><path class="cls-1" d="M5,3H7V5H5v5a2,2,0,0,1-2,2,2,2,0,0,1,2,2v5H7v2H5c-1.07-.27-2-.9-2-2V15a2,2,0,0,0-2-2H0V11H1A2,2,0,0,0,3,9V5A2,2,0,0,1,5,3M19,3a2,2,0,0,1,2,2V9a2,2,0,0,0,2,2h1v2H23a2,2,0,0,0-2,2v4a2,2,0,0,1-2,2H17V19h2V14a2,2,0,0,1,2-2,2,2,0,0,1-2-2V5H17V3h2M12,15a1,1,0,1,1-1,1,1,1,0,0,1,1-1M8,15a1,1,0,1,1-1,1,1,1,0,0,1,1-1m8,0a1,1,0,1,1-1,1A1,1,0,0,1,16,15Z" transform="translate(0 -3)"/></svg>
